common/src/main/resources/icons/diff/currentLine.svg

<svg xmlns="http://www.w3.org/2000/svg" width="16" height="16" fill="#4FC3F7" data-big="true" viewBox="0 0 24 24"><path d="M13.64 21.97a.99.99 0 0 1-1.33-.47l-2.18-4.74-2.51 2.02c-.17.14-.38.22-.62.22a1 1 0 0 1-1-1V3a1 1 0 0 1 1-1c.24 0 .47.09.64.23l.01-.01 11.49 9.64a1.001 1.001 0 0 1-.44 1.75l-3.16.62 2.2 4.73c.26.5.02 1.09-.48 1.32z"/></svg>

<!--
  - The MIT License (MIT)
  -
  - Copyright (c) 2015-2024 Elior "Mallowigi" Boukhobza
  -
  - Permission is hereby granted, free of charge, to any person obtaining a copy
  - of this software and associated documentation files (the "Software"), to deal
  - in the Software without restriction, including without limitation the rights
  - to use, copy, modify, merge, publish, distribute, sublicense, and/or sell
  - copies of the Software, and to permit persons to whom the Software is
  - furnished to do so, subject to the following conditions:
  -
  - The above copyright notice and this permission notice shall be included in all
  - copies or substantial portions of the Software.
  -
  - THE SOFTWARE IS PROVIDED "AS IS", WITHOUT WARRANTY OF ANY KIND, EXPRESS OR
  - IMPLIED, INCLUDING BUT NOT LIMITED TO THE WARRANTIES OF MERCHANTABILITY,
  - FITNESS FOR A PARTICULAR PURPOSE AND NONINFRINGEMENT. IN NO EVENT SHALL THE
  - AUTHORS OR COPYRIGHT HOLDERS BE LIABLE FOR ANY CLAIM, DAMAGES OR OTHER
  - LIABILITY, WHETHER IN AN ACTION OF CONTRACT, TORT OR OTHERWISE, ARISING FROM,
  - OUT OF OR IN CONNECTION WITH THE SOFTWARE OR THE USE OR OTHER DEALINGS IN THE
  - SOFTWARE.
  -->


<svg data-big="true" xmlns="http://www.w3.org/2000/svg" version="1.1" width="16px" height="16px" fill="#4FC3F7"
     viewBox="0 0 24 24">
  <path
    d="M13.64,21.97C13.14,22.21 12.54,22 12.31,21.5L10.13,16.76L7.62,18.78C7.45,18.92 7.24,19 7,19A1,1 0 0,1 6,18V3A1,1 0 0,1 7,2C7.24,2 7.47,2.09 7.64,2.23L7.65,2.22L19.14,11.86C19.57,12.22 19.62,12.85 19.27,13.27C19.12,13.45 18.91,13.57 18.7,13.61L15.54,14.23L17.74,18.96C18,19.46 17.76,20.05 17.26,20.28L13.64,21.97Z"/>
</svg>
